images/icons/history.svg

<svg width="48" height="48" viewBox="0 0 48 48" fill="none" xmlns="http://www.w3.org/2000/svg">
<path d="M23.85 42C18.8833 42 14.6667 40.2417 11.2 36.725C7.73333 33.2083 6 28.95 6 23.95H9C9 28.1167 10.4333 31.6667 13.3 34.6C16.1667 37.5333 19.6833 39 23.85 39C28.0833 39 31.6667 37.5167 34.6 34.55C37.5333 31.5833 39 27.9833 39 23.75C39 19.6167 37.5167 16.125 34.55 13.275C31.5833 10.425 28.0167 9 23.85 9C21.5833 9 19.4583 9.51667 17.475 10.55C15.4917 11.5833 13.7667 12.95 12.3 14.65H17.55V17.65H7.1V7.25H10.1V12.55C11.8333 10.5167 13.8917 8.91667 16.275 7.75C18.6583 6.58333 21.1833 6 23.85 6C26.35 6 28.7 6.46667 30.9 7.4C33.1 8.33333 35.025 9.60833 36.675 11.225C38.325 12.8417 39.625 14.7333 40.575 16.9C41.525 19.0667 42 21.4 42 23.9C42 26.4 41.525 28.75 40.575 30.95C39.625 33.15 38.325 35.0667 36.675 36.7C35.025 38.3333 33.1 39.625 30.9 40.575C28.7 41.525 26.35 42 23.85 42ZM30.25 32.15L22.55 24.55V13.85H25.55V23.3L32.4 30L30.25 32.15Z" fill="#CDCDCD"/>
</svg>

<svg xmlns="http://www.w3.org/2000/svg" height="48" width="48"><path d="M23.85 42q-7.45 0-12.65-5.275T6 23.95h3q0 6.25 4.3 10.65T23.85 39q6.35 0 10.75-4.45t4.4-10.8q0-6.2-4.45-10.475Q30.1 9 23.85 9q-3.4 0-6.375 1.55t-5.175 4.1h5.25v3H7.1V7.25h3v5.3q2.6-3.05 6.175-4.8Q19.85 6 23.85 6q3.75 0 7.05 1.4t5.775 3.825q2.475 2.425 3.9 5.675Q42 20.15 42 23.9t-1.425 7.05q-1.425 3.3-3.9 5.75-2.475 2.45-5.775 3.875Q27.6 42 23.85 42Zm6.4-9.85-7.7-7.6v-10.7h3v9.45L32.4 30Z"/></svg>
